!!!COM: de Machuat, Guillaume
!!!OTL: Plus dure que un dyamant
!! Guillaume de Machaut, "Plus dure que un dyamant" No. 28 from Volume 5 of
!! "Oeuvres Comple\tes" E/ditions de l'Oiseau-lyre (Monaco) -1977; p.49
!! the second ending is encoded.
**kern	**kern
*M3/4	*M3/4
=1	=1
2.G	4d
.	8e
.	8d
.	4e
=2	=2
2.F	8c
.	4B
.	8c
.	4A
=3	=3
2.E	4c#
.	4c#
.	4B
=4	=4
2.D	2d
.	4r
=5	=5
2.d	8b-
.	8a
.	8g
.	4f
.	8g
=6	=6
4c#	4e
4r	4e
4d	4d
=7	=7
4r	8e
.	4f
2A	.
.	8g
.	4e
=8	=8
2.G	8g
.	8f
.	8e
.	4d
.	8e
=9	=9
4r	4c
2D	2d
=10	=10
2.D	2A
.	4r
=11	=11
4r	8c
.	8B
2F	4c
.	4A
=12	=12
8A	4.A
8G	.
4A	.
.	8B
4F	4c
=13	=13
2.G	4d
.	8e
.	8d
.	4e
=14	=14
4.G	8g
.	8f
.	8e
8F#	4d
4G	.
.	8e
=15	=15
8A	4c#
8G	.
4A	2d
4F	.
=16	=16
2.E	2e
.	4r
=17	=17
2.D	8b-
.	8a
.	8g
.	4f
.	8g
=18	=18
2E	4e
.	4e
4r	4A
=19	=19
8A	4.A
8G	.
4A	.
.	8B
4F	4c
=20	=20
4.G	8d
.	8r
.	8f
8A	4e
4G	.
.	8f
=21	=21
4F	4d
2E	8c#
.	8B
.	4c#
=22	=22
2.D	2.d
=23	=23
2.d	4a
.	4a
.	4d
=24	=24
4r	4e
2A	8a
.	8g
.	4a
=25	=25
8B-	8f
4A	4e
8G	8f
4F	4d
=26	=26
2.E	4e
.	2r
=27	=27
4D	4.A
2E	.
.	8B
.	4c
=28	=28
4.G	8d
.	8c
.	4d
8F	.
4E	8B
.	8c
=29	=29
2.D	4.d
.	8c
.	4d
=30	=30
4r	8e
.	8r
2D	8f
.	4e
.	8f
=31	=31
4F	4d
2E	8c#
.	8B
.	4c#
=32	=32
2.D	2.d
==	==
*-	*-
